static/images/pieces/kaneo/wC.svg

<svg clip-rule="evenodd" fill-rule="evenodd" height="50mm" image-rendering="optimizeQuality" shape-rendering="geometricPrecision" text-rendering="geometricPrecision" viewBox="0 0 50 50" width="50mm" xmlns="http://www.w3.org/2000/svg"><g stroke="#333"><circle cx="-.281733" cy="32.066017" fill="#333" r=".99961" stroke-linecap="square" stroke-width=".843627" transform="matrix(.97805144 -.20836358 .20836358 .97805144 0 0)"/><path d="m7.6396179 25.11237 32.6945191-17.1730595c.03127-1.6352149.239134-1.6220205.953324-1.5531627l3.206304 4.8489192c.02789 1.208099-.133814.794433-1.649314.450153l-29.707076 20.685607c-5.9064333 1.888449-7.8066908-4.414738-5.4977571-7.258457z" fill="#f9f9f9" fill-rule="evenodd" stroke-width="1.5"/><path d="m13.954837 31.599873-.586878 2.449734-2.228296.544786.439431 3.143435 5.248869-.570962c-.0483-.60127-.30616-2.642001 1.804186-8.622155z" fill="#f9f9f9" fill-rule="evenodd" stroke-width="1.03607"/><path d="m12.900237 38.182984c-1.28054 0-2.311435.783343-2.311435 1.756366.000968 1.74588-.00027 3.587027 0 5.18337h27.298279c-.000095-1.911015 0-3.384798 0-5.18337 0-.973023-1.030914-1.756366-2.311433-1.756366z" fill="#f9f9f9" stroke-linecap="square" stroke-width="1.155607"/></g><path d="m42.783205 10.035513-32.668404 21.831664c.70501.169247 1.278512.254311 2.777917-.119995l29.846495-20.588169.73912-.133752z" fill="#e6e6e6" fill-rule="evenodd"/><path d="m16.651865 30.449926-.751049 6.29756.367214-.0068c.373491-2.76264.66487-4.289672 1.42039-6.963368z" fill="#e6e6e6" fill-rule="evenodd"/><path d="m22.585071 13.58337a12.490905 12.490905 0 0 0 -9.614098 14.819396 12.490905 12.490905 0 0 0 14.819397 9.614097 12.490905 12.490905 0 0 0 9.614093-14.819396 12.490905 12.490905 0 0 0 -14.819392-9.614097zm.419782 1.970443a10.476243 10.476243 0 0 1 12.429172 8.063435 10.476243 10.476243 0 0 1 -8.063437 12.429172 10.476243 10.476243 0 0 1 -12.429172-8.063437 10.476243 10.476243 0 0 1 8.063437-12.42917z" fill="#333"/><path d="m23.016991 14.730719 4.610482 22.08148" fill="none" stroke="#333" stroke-width="1.470379"/><path d="m36.113817 22.956752-22.081471 4.610515" fill="none" stroke="#333" stroke-width="1.470379"/><path d="m34.224049 31.122696-19.174391-11.882373" fill="none" stroke="#333" stroke-width="1.470379"/><circle cx="19.259075" cy="30.482044" fill="#333" r="3.798883" transform="matrix(.97805144 -.20836358 .20836358 .97805144 0 0)"/><path d="m19.137322 34.605654 12.666452-18.665729" fill="none" stroke="#333" stroke-width="1.470379"/></svg>

<?xml version="1.0" encoding="UTF-8" standalone="no"?>
<svg
   xmlns:dc="http://purl.org/dc/elements/1.1/"
   xmlns:cc="http://creativecommons.org/ns#"
   xmlns:rdf="http://www.w3.org/1999/02/22-rdf-syntax-ns#"
   xmlns:svg="http://www.w3.org/2000/svg"
   xmlns="http://www.w3.org/2000/svg"
   xmlns:sodipodi="http://sodipodi.sourceforge.net/DTD/sodipodi-0.dtd"
   xmlns:inkscape="http://www.inkscape.org/namespaces/inkscape"
   inkscape:export-ydpi="101.6"
   inkscape:export-xdpi="101.6"
   inkscape:export-filename="/home/spcmd/Projects/chess-pieces/wN.png"
   inkscape:version="1.0 (4035a4fb49, 2020-05-01)"
   sodipodi:docname="wC.svg"
   id="svg9033"
   viewBox="0 0 50 50"
   version="1.1"
   text-rendering="geometricPrecision"
   shape-rendering="geometricPrecision"
   image-rendering="optimizeQuality"
   fill-rule="evenodd"
   clip-rule="evenodd"
   height="50mm"
   width="50mm">
  <defs
     id="defs9037" />
  <sodipodi:namedview
     inkscape:document-rotation="0"
     inkscape:snap-smooth-nodes="true"
     inkscape:snap-intersection-paths="true"
     inkscape:object-paths="true"
     inkscape:snap-bbox-midpoints="true"
     inkscape:snap-bbox-edge-midpoints="true"
     inkscape:bbox-nodes="true"
     inkscape:bbox-paths="true"
     inkscape:snap-bbox="true"
     inkscape:snap-global="false"
     inkscape:guide-bbox="true"
     showguides="true"
     inkscape:current-layer="svg9033"
     inkscape:window-maximized="0"
     inkscape:window-y="0"
     inkscape:window-x="0"
     inkscape:cy="72.707827"
     inkscape:cx="231.75284"
     inkscape:zoom="1.3939381"
     showgrid="false"
     id="namedview9035"
     inkscape:window-height="720"
     inkscape:window-width="1350"
     inkscape:pageshadow="2"
     inkscape:pageopacity="0"
     guidetolerance="10"
     gridtolerance="10"
     objecttolerance="10"
     borderopacity="1"
     bordercolor="#666666"
     pagecolor="#ffffff" />
  <metadata
     id="metadata9021">
    <rdf:RDF>
      <cc:Work
         rdf:about="">
        <dc:format>image/svg+xml</dc:format>
        <dc:type
           rdf:resource="http://purl.org/dc/dcmitype/StillImage" />
        <dc:title />
      </cc:Work>
    </rdf:RDF>
  </metadata>
  <g
     transform="translate(-23.670138,-50.540255)"
     id="g21314" />
  <circle
     transform="rotate(-12.026471)"
     r="0.99960971"
     cy="32.066017"
     cx="-0.28173256"
     id="path21415"
     style="opacity:1;fill:#333333;fill-opacity:1;stroke:#333333;stroke-width:0.84362745;stroke-linecap:square;stroke-linejoin:miter;stroke-miterlimit:4;stroke-dasharray:none;stroke-dashoffset:0;stroke-opacity:1;paint-order:fill markers stroke" />
  <path
     sodipodi:nodetypes="ccccccc"
     inkscape:connector-curvature="0"
     id="path21417"
     d="M 7.6396179,25.11237 40.334137,7.9393105 C 40.365407,6.3040956 40.573271,6.31729 41.287461,6.3861478 l 3.206304,4.8489192 c 0.02789,1.208099 -0.133814,0.794433 -1.649314,0.450153 L 13.137375,32.370827 C 7.2309417,34.259276 5.3306842,27.956089 7.6396179,25.11237 Z"
     style="fill:#f9f9f9;fill-opacity:1;fill-rule:evenodd;stroke:#333333;stroke-width:1.5;stroke-linecap:butt;stroke-linejoin:miter;stroke-opacity:1" />
  <path
     sodipodi:nodetypes="ccccccc"
     inkscape:connector-curvature="0"
     id="path21419"
     d="m 13.954837,31.599873 -0.586878,2.449734 -2.228296,0.544786 0.439431,3.143435 5.248869,-0.570962 c -0.0483,-0.60127 -0.30616,-2.642001 1.804186,-8.622155 z"
     style="fill:#f9f9f9;fill-opacity:1;fill-rule:evenodd;stroke:#333333;stroke-width:1.03606963;stroke-linecap:butt;stroke-linejoin:miter;stroke-opacity:1" />
  <path
     inkscape:connector-curvature="0"
     id="rect4661-3-4-1-5-6-1-1"
     d="m 12.900237,38.182984 c -1.28054,0 -2.311435,0.783343 -2.311435,1.756366 9.68e-4,1.74588 -2.7e-4,3.587027 0,5.18337 h 27.298279 c -9.5e-5,-1.911015 0,-3.384798 0,-5.18337 0,-0.973023 -1.030914,-1.756366 -2.311433,-1.756366 z"
     style="opacity:1;fill:#f9f9f9;fill-opacity:1;stroke:#333333;stroke-width:1.1556071;stroke-linecap:square;stroke-linejoin:miter;stroke-miterlimit:4;stroke-dasharray:none;stroke-dashoffset:0;stroke-opacity:1;paint-order:fill markers stroke"
     sodipodi:nodetypes="sccccss" />
  <path
     sodipodi:nodetypes="cccccc"
     inkscape:connector-curvature="0"
     id="path21796"
     d="M 42.783205,10.035513 10.114801,31.867177 c 0.70501,0.169247 1.278512,0.254311 2.777917,-0.119995 l 29.846495,-20.588169 0.73912,-0.133752 z"
     style="fill:#e6e6e6;fill-opacity:1;fill-rule:evenodd;stroke:none;stroke-width:0.26458332px;stroke-linecap:butt;stroke-linejoin:miter;stroke-opacity:1" />
  <path
     sodipodi:nodetypes="ccccc"
     inkscape:connector-curvature="0"
     id="path21837"
     d="m 16.651865,30.449926 -0.751049,6.29756 0.367214,-0.0068 c 0.373491,-2.76264 0.66487,-4.289672 1.42039,-6.963368 z"
     style="fill:#e6e6e6;fill-opacity:1;fill-rule:evenodd;stroke:none;stroke-width:0.26458332px;stroke-linecap:butt;stroke-linejoin:miter;stroke-opacity:1" />
  <path
     inkscape:connector-curvature="0"
     id="path21326"
     d="M 22.585071,13.58337 A 12.490905,12.490905 0 0 0 12.970973,28.402766 12.490905,12.490905 0 0 0 27.79037,38.016863 12.490905,12.490905 0 0 0 37.404463,23.197467 12.490905,12.490905 0 0 0 22.585071,13.58337 Z m 0.419782,1.970443 a 10.476243,10.476243 0 0 1 12.429172,8.063435 10.476243,10.476243 0 0 1 -8.063437,12.429172 10.476243,10.476243 0 0 1 -12.429172,-8.063437 10.476243,10.476243 0 0 1 8.063437,-12.42917 z"
     style="opacity:1;fill:#333333;fill-opacity:1;stroke:none;stroke-width:1.33612406;stroke-linecap:square;stroke-linejoin:miter;stroke-miterlimit:4;stroke-dasharray:none;stroke-dashoffset:0;stroke-opacity:1;paint-order:fill markers stroke" />
  <path
     sodipodi:nodetypes="cc"
     inkscape:connector-curvature="0"
     id="path21247"
     d="m 23.016991,14.730719 4.610482,22.08148"
     style="fill:none;fill-rule:evenodd;stroke:#333333;stroke-width:1.47037876;stroke-linecap:butt;stroke-linejoin:miter;stroke-opacity:1" />
  <path
     sodipodi:nodetypes="cc"
     inkscape:connector-curvature="0"
     id="path21247-9"
     d="M 36.113817,22.956752 14.032346,27.567267"
     style="fill:none;fill-rule:evenodd;stroke:#333333;stroke-width:1.47037876;stroke-linecap:butt;stroke-linejoin:miter;stroke-opacity:1" />
  <path
     sodipodi:nodetypes="cc"
     inkscape:connector-curvature="0"
     id="path21247-9-7"
     d="M 34.224049,31.122696 15.049658,19.240323"
     style="fill:none;fill-rule:evenodd;stroke:#333333;stroke-width:1.47037876;stroke-linecap:butt;stroke-linejoin:miter;stroke-opacity:1" />
  <circle
     transform="rotate(-12.026471)"
     r="3.7988832"
     cy="30.482044"
     cx="19.259075"
     id="path21245"
     style="opacity:1;fill:#333333;fill-opacity:1;stroke:none;stroke-width:1.52289414;stroke-linecap:square;stroke-linejoin:miter;stroke-miterlimit:4;stroke-dasharray:none;stroke-dashoffset:0;stroke-opacity:1;paint-order:fill markers stroke" />
  <path
     sodipodi:nodetypes="cc"
     inkscape:connector-curvature="0"
     id="path21247-9-7-3"
     d="M 19.137322,34.605654 31.803774,15.939925"
     style="fill:none;fill-rule:evenodd;stroke:#333333;stroke-width:1.47037876;stroke-linecap:butt;stroke-linejoin:miter;stroke-opacity:1" />
</svg>
